packages/foundations/assets/icons/functional/images/arrows/chevron_up_20.svg

<svg width="20" height="20" viewBox="0 0 20 20" fill="none" xmlns="http://www.w3.org/2000/svg">
<g clip-path="url(#clip0_77_515)">
<path fill-rule="evenodd" clip-rule="evenodd" d="M4.994 13.5C4.73053 13.4989 4.47816 13.3937 4.29195 13.2073C4.10574 13.0209 4.00079 12.7685 4 12.505C4 12.239 4.133 11.974 4.298 11.808L9.304 6.798C9.503 6.6 9.768 6.5 10 6.5C10.227 6.5 10.455 6.573 10.62 6.72L15.702 11.808C15.901 11.974 16 12.239 16 12.505C15.9992 12.7685 15.8943 13.0209 15.7081 13.2073C15.5218 13.3937 15.2695 13.4989 15.006 13.5C14.74 13.5 14.476 13.4 14.276 13.201L10 8.921L5.724 13.201C5.524 13.401 5.26 13.5 4.994 13.5Z" fill="#1A1C1F"/>
</g>
<defs>
<clipPath id="clip0_77_515">
<rect width="20" height="20" fill="white"/>
</clipPath>
</defs>
</svg>

<svg xmlns="http://www.w3.org/2000/svg" width="20" height="20" fill="none"><g clip-path="url(#a)"><path fill="#1A1C1F" fill-rule="evenodd" d="M4.994 13.5A1 1 0 0 1 4 12.505c0-.266.133-.531.298-.697l5.006-5.01C9.503 6.6 9.768 6.5 10 6.5c.227 0 .455.073.62.22l5.082 5.088c.199.166.298.431.298.697a1 1 0 0 1-.994.995c-.266 0-.53-.1-.73-.299L10 8.921l-4.276 4.28c-.2.2-.464.299-.73.299" clip-rule="evenodd"/></g><defs><clipPath id="a"><path fill="#fff" d="M0 0h20v20H0z"/></clipPath></defs></svg>
